X:1
T: My Friend Joe
T: 8 x 32S3C (RSCDS Bk 38)
P: The Hill O' Nigg
C: By J. Scott Skinner, arr. T. Traub 9/26/95
M: 4/4
L: 1/8
%
K: C
F|"C"E>FG>_B "F"A2 F>A|"C"G>FE>c "G"d<DD>F|"C"E>FG>_B "F"A2 F>A|"G"G>cB<d "C"c<CC>F|"C"E>FG>_B "F"A2 F>A|
"C"G>FE>c "G"d<DD>F|"C7"E>FG>_B "F"A2 F>A|"C"G>c"G"B<g "C"e<cc>g|| "C"c'>e"F"f<a "C"g>cB<c|"F"A<c"C"G<c "G"d<DD>g|"C"c'>e"F"f<a "C"g>cB<c|
"F"A<c"G"G<c "C"E<CC>g|"C"c'>e"F"f<a "C"g>cB<c|"F"A/B/c "C"G<c "G"d<DD>F|"C"E>FG>_B "F"A>E"Dm"F>A|"C"G>c"G"B<g "C"e<c c |]
